flaticon/user-interface/insert.svg

<svg xmlns="http://www.w3.org/2000/svg" width="32" height="32" viewBox="0 0 24 24">
    <path d="M 0 0.199219 L 0 23.800781 L 24 23.800781 L 24 0.199219 Z M 23.199219 23 L 0.800781 23 L 0.800781 1 L 23.199219 1 Z M 23.199219 23"/>
    <path d="M4.800781 4.601562L18.800781 4.601562C19.019531 4.601562 19.199219 4.421875 19.199219 4.199219 19.199219 3.980469 19.019531 3.800781 18.800781 3.800781L4.800781 3.800781C4.578125 3.800781 4.398438 3.980469 4.398438 4.199219 4.398438 4.421875 4.578125 4.601562 4.800781 4.601562zM4.800781 7.398438L18.800781 7.398438C19.019531 7.398438 19.199219 7.222656 19.199219 7 19.199219 6.777344 19.019531 6.601562 18.800781 6.601562L4.800781 6.601562C4.578125 6.601562 4.398438 6.777344 4.398438 7 4.398438 7.222656 4.578125 7.398438 4.800781 7.398438zM18.800781 10.199219L12 10.199219C11.777344 10.199219 11.601562 10.378906 11.601562 10.601562 11.601562 10.820312 11.777344 11 12 11L18.800781 11C19.019531 11 19.199219 10.820312 19.199219 10.601562 19.199219 10.378906 19.019531 10.199219 18.800781 10.199219zM18.800781 13L12 13C11.777344 13 11.601562 13.179688 11.601562 13.398438 11.601562 13.621094 11.777344 13.800781 12 13.800781L18.800781 13.800781C19.019531 13.800781 19.199219 13.621094 19.199219 13.398438 19.199219 13.179688 19.019531 13 18.800781 13zM18.800781 16.601562L4.800781 16.601562C4.578125 16.601562 4.398438 16.777344 4.398438 17 4.398438 17.222656 4.578125 17.398438 4.800781 17.398438L18.800781 17.398438C19.019531 17.398438 19.199219 17.222656 19.199219 17 19.199219 16.777344 19.019531 16.601562 18.800781 16.601562zM18.800781 19.398438L4.800781 19.398438C4.578125 19.398438 4.398438 19.578125 4.398438 19.800781 4.398438 20.019531 4.578125 20.199219 4.800781 20.199219L18.800781 20.199219C19.019531 20.199219 19.199219 20.019531 19.199219 19.800781 19.199219 19.578125 19.019531 19.398438 18.800781 19.398438zM6 15.46875L9.8125 12.199219 6 8.929688 6 10.601562 2.800781 10.601562 2.800781 13.800781 6 13.800781zM3.601562 13L3.601562 11.398438 6.800781 11.398438 6.800781 10.667969 8.585938 12.199219 6.800781 13.730469 6.800781 13zM3.601562 13"/>
</svg>

<svg xmlns="http://www.w3.org/2000/svg" width="32" height="32" viewBox="0 0 24 24">
    <path d="M0 .2v23.6h24V.2zM23.2 23H.8V1h22.4zm0 0"/>
    <path d="M4.8 4.602h14a.401.401 0 0 0 0-.801h-14a.401.401 0 1 0 0 .8zm0 0M4.8 7.398h14a.398.398 0 1 0 0-.796h-14a.398.398 0 1 0 0 .796zm0 0M18.8 10.2H12a.398.398 0 0 0-.398.402c0 .218.175.398.398.398h6.8a.4.4 0 0 0 0-.8zm0 0M18.8 13H12a.398.398 0 0 0-.398.398c0 .223.175.403.398.403h6.8a.401.401 0 0 0 0-.801zm0 0M18.8 16.602h-14a.398.398 0 1 0 0 .796h14a.398.398 0 1 0 0-.796zm0 0M18.8 19.398h-14a.401.401 0 0 0 0 .8l14 .001a.4.4 0 0 0 0-.8zm0 0M6 15.469l3.813-3.27L6 8.93v1.673H2.8V13.8H6zM3.602 13v-1.602H6.8v-.73l1.785 1.531L6.8 13.73V13zm0 0"/>
</svg>
